X:584
L:1/8
Q:1/4=95
M:3/4
K:F
 C2 C C2 A, | C2 C C2 z | C2 C C2 D | C3 B,3 | (A,3 A,2) z | C2 C C2 A, | C2 C C2 z | C2 C C2 D | 
 C3 B,3 | (A,3 A,2) z | A,2 A, A,2 A, | B,3 B,3 | (A,3 A,2) z | A,2 A, A,2 A, | B,3 B,3 | 
 (A,3 A,2) z | C2 C C2 A, | C2 C C2 z | C2 C C2 D | C3 B,3 | (A,3 A,2) z |]

